assets/1. P-Z/Pouring liquid/Color/Pouring.Liquid-color.svg

<svg width="100%" height="100%" viewBox="0 0 32 32" fill="none" xmlns="http://www.w3.org/2000/svg">
<path d="M4.17048 4.80693C4.31123 4.27785 4.82083 3.93378 5.36417 4.00098L21.2491 5.96553C21.7202 6.0238 22.0315 6.48457 21.9097 6.94338L18.536 19.649C18.389 20.2028 17.7847 20.4971 17.258 20.2714L2.58849 13.9845C2.14547 13.7946 1.90886 13.3084 2.03277 12.8426L4.17048 4.80693Z" fill="url(#paint0_linear_4791_556)"/>
<path d="M4.17048 4.80693C4.31123 4.27785 4.82083 3.93378 5.36417 4.00098L21.2491 5.96553C21.7202 6.0238 22.0315 6.48457 21.9097 6.94338L18.536 19.649C18.389 20.2028 17.7847 20.4971 17.258 20.2714L2.58849 13.9845C2.14547 13.7946 1.90886 13.3084 2.03277 12.8426L4.17048 4.80693Z" fill="url(#paint1_linear_4791_556)"/>
<path d="M4.17048 4.80693C4.31123 4.27785 4.82083 3.93378 5.36417 4.00098L21.2491 5.96553C21.7202 6.0238 22.0315 6.48457 21.9097 6.94338L18.536 19.649C18.389 20.2028 17.7847 20.4971 17.258 20.2714L2.58849 13.9845C2.14547 13.7946 1.90886 13.3084 2.03277 12.8426L4.17048 4.80693Z" fill="url(#paint2_linear_4791_556)"/>
<path d="M4.17048 4.80693C4.31123 4.27785 4.82083 3.93378 5.36417 4.00098L21.2491 5.96553C21.7202 6.0238 22.0315 6.48457 21.9097 6.94338L18.536 19.649C18.389 20.2028 17.7847 20.4971 17.258 20.2714L2.58849 13.9845C2.14547 13.7946 1.90886 13.3084 2.03277 12.8426L4.17048 4.80693Z" fill="url(#paint3_linear_4791_556)"/>
<path d="M4.17048 4.80693C4.31123 4.27785 4.82083 3.93378 5.36417 4.00098L21.2491 5.96553C21.7202 6.0238 22.0315 6.48457 21.9097 6.94338L18.536 19.649C18.389 20.2028 17.7847 20.4971 17.258 20.2714L2.58849 13.9845C2.14547 13.7946 1.90886 13.3084 2.03277 12.8426L4.17048 4.80693Z" fill="url(#paint4_linear_4791_556)"/>
<path d="M4.17048 4.80693C4.31123 4.27785 4.82083 3.93378 5.36417 4.00098L21.2491 5.96553C21.7202 6.0238 22.0315 6.48457 21.9097 6.94338L18.536 19.649C18.389 20.2028 17.7847 20.4971 17.258 20.2714L2.58849 13.9845C2.14547 13.7946 1.90886 13.3084 2.03277 12.8426L4.17048 4.80693Z" fill="url(#paint5_radial_4791_556)"/>
<path d="M4.17048 4.80693C4.31123 4.27785 4.82083 3.93378 5.36417 4.00098L21.2491 5.96553C21.7202 6.0238 22.0315 6.48457 21.9097 6.94338L18.536 19.649C18.389 20.2028 17.7847 20.4971 17.258 20.2714L2.58849 13.9845C2.14547 13.7946 1.90886 13.3084 2.03277 12.8426L4.17048 4.80693Z" fill="url(#paint6_radial_4791_556)"/>
<path d="M19.7747 7.60232C20.1193 7.64497 20.3652 7.96767 20.3239 8.32308C20.2825 8.67849 19.9696 8.93204 19.6249 8.88939L5.71146 7.16767L6.04015 5.90274L19.7747 7.60232Z" fill="url(#paint7_linear_4791_556)"/>
<path d="M23.9765 26.5232C24.0228 26.8544 24.3028 27.1059 24.6372 27.1059H28.5004C29.3286 27.1059 30 27.7816 30 28.6152C30 29.4488 29.3286 30 28.5004 30H15.483C14.6548 30 13.9834 29.4488 13.9834 28.6152C13.9834 27.7816 14.6548 27.1059 15.483 27.1059H21.9615C22.2235 27.1059 22.4275 26.8771 22.3906 26.6178C22.1248 24.7502 23.665 24.2933 23.9765 26.5232Z" fill="url(#paint8_linear_4791_556)"/>
<path d="M23.9765 26.5232C24.0228 26.8544 24.3028 27.1059 24.6372 27.1059H28.5004C29.3286 27.1059 30 27.7816 30 28.6152C30 29.4488 29.3286 30 28.5004 30H15.483C14.6548 30 13.9834 29.4488 13.9834 28.6152C13.9834 27.7816 14.6548 27.1059 15.483 27.1059H21.9615C22.2235 27.1059 22.4275 26.8771 22.3906 26.6178C22.1248 24.7502 23.665 24.2933 23.9765 26.5232Z" fill="url(#paint9_radial_4791_556)"/>
<path d="M23.9765 26.5232C24.0228 26.8544 24.3028 27.1059 24.6372 27.1059H28.5004C29.3286 27.1059 30 27.7816 30 28.6152C30 29.4488 29.3286 30 28.5004 30H15.483C14.6548 30 13.9834 29.4488 13.9834 28.6152C13.9834 27.7816 14.6548 27.1059 15.483 27.1059H21.9615C22.2235 27.1059 22.4275 26.8771 22.3906 26.6178C22.1248 24.7502 23.665 24.2933 23.9765 26.5232Z" fill="url(#paint10_radial_4791_556)"/>
<path d="M8.32575 14.579C8.48232 14.1925 8.92051 14.007 9.30445 14.1646L17.041 17.3805C21.9273 19.5277 23.4381 22.6693 23.9765 26.5232C24.1092 27.4728 22.526 27.5694 22.3906 26.6178C21.9192 23.3063 20.5516 20.6699 16.5661 18.899L8.73748 15.564C8.35353 15.4064 8.16919 14.9654 8.32575 14.579Z" fill="#45BAFF"/>
<path d="M8.32575 14.579C8.48232 14.1925 8.92051 14.007 9.30445 14.1646L17.041 17.3805C21.9273 19.5277 23.4381 22.6693 23.9765 26.5232C24.1092 27.4728 22.526 27.5694 22.3906 26.6178C21.9192 23.3063 20.5516 20.6699 16.5661 18.899L8.73748 15.564C8.35353 15.4064 8.16919 14.9654 8.32575 14.579Z" fill="url(#paint11_radial_4791_556)"/>
<path d="M8.32575 14.579C8.48232 14.1925 8.92051 14.007 9.30445 14.1646L17.041 17.3805C21.9273 19.5277 23.4381 22.6693 23.9765 26.5232C24.1092 27.4728 22.526 27.5694 22.3906 26.6178C21.9192 23.3063 20.5516 20.6699 16.5661 18.899L8.73748 15.564C8.35353 15.4064 8.16919 14.9654 8.32575 14.579Z" fill="url(#paint12_radial_4791_556)"/>
<path d="M8.32575 14.579C8.48232 14.1925 8.92051 14.007 9.30445 14.1646L17.041 17.3805C17.7274 17.6821 18.3472 18.0033 18.907 18.3434L18.4292 19.9086C17.8824 19.5462 17.2644 19.2093 16.5661 18.899L8.73748 15.564C8.35353 15.4064 8.16919 14.9654 8.32575 14.579Z" fill="url(#paint13_linear_4791_556)"/>
<circle cx="19.0802" cy="24.5287" r="1.35499" fill="url(#paint14_radial_4791_556)"/>
<circle cx="19.0802" cy="24.5287" r="1.35499" fill="url(#paint15_radial_4791_556)"/>
<circle cx="26.0436" cy="24.5719" r="1.04411" fill="url(#paint16_radial_4791_556)"/>
<circle cx="26.0436" cy="24.5719" r="1.04411" fill="url(#paint17_radial_4791_556)"/>
<defs>
<linearGradient id="paint0_linear_4791_556" x1="12.6518" y1="5.19896" x2="10.4598" y2="15.7206" gradientUnits="userSpaceOnUse">
<stop stop-color="#BEE4FF"/>
<stop offset="0.110768" stop-color="#C0EBFF"/>
<stop offset="1" stop-color="#C8F2FF"/>
</linearGradient>
<linearGradient id="paint1_linear_4791_556" x1="12.6518" y1="4.51004" x2="11.9629" y2="9.89613" gradientUnits="userSpaceOnUse">
<stop offset="0.0909937" stop-color="#B9CEF1"/>
<stop offset="0.218039" stop-color="#B9D2FB" stop-opacity="0"/>
</linearGradient>
<linearGradient id="paint2_linear_4791_556" x1="9.33245" y1="16.9732" x2="11.6201" y2="11.4579" gradientUnits="userSpaceOnUse">
<stop offset="0.0519634" stop-color="#C3D5FA"/>
<stop offset="0.351155" stop-color="#C1E9FF" stop-opacity="0"/>
</linearGradient>
<linearGradient id="paint3_linear_4791_556" x1="2.56852" y1="8.70618" x2="11.6201" y2="11.4579" gradientUnits="userSpaceOnUse">
<stop offset="0.0519634" stop-color="#C3D5FA"/>
<stop offset="0.145423" stop-color="#C1E9FF" stop-opacity="0"/>
</linearGradient>
<linearGradient id="paint4_linear_4791_556" x1="20.7309" y1="13.5286" x2="11.6201" y2="11.4579" gradientUnits="userSpaceOnUse">
<stop offset="0.0519634" stop-color="#C3D5FA"/>
<stop offset="0.145423" stop-color="#C1E9FF" stop-opacity="0"/>
</linearGradient>
<radialGradient id="paint5_radial_4791_556" cx="0" cy="0" r="1" gradientUnits="userSpaceOnUse" gradientTransform="translate(20.543 10.4598) rotate(-163.301) scale(0.653864 5.55783)">
<stop stop-color="#D5FFFF"/>
<stop offset="1" stop-color="#D5FFFF" stop-opacity="0"/>
</radialGradient>
<radialGradient id="paint6_radial_4791_556" cx="0" cy="0" r="1" gradientUnits="userSpaceOnUse" gradientTransform="translate(3.28876 10.7103) rotate(17.1028) scale(0.425923 2.69193)">
<stop stop-color="#D5FFFF"/>
<stop offset="1" stop-color="#D5FFFF" stop-opacity="0"/>
</radialGradient>
<linearGradient id="paint7_linear_4791_556" x1="20.3284" y1="8.39303" x2="3.44533" y2="5.90274" gradientUnits="userSpaceOnUse">
<stop offset="0.40954" stop-color="white"/>
<stop offset="0.851872" stop-color="white" stop-opacity="0"/>
</linearGradient>
<linearGradient id="paint8_linear_4791_556" x1="21.9917" y1="26.9938" x2="21.9917" y2="30" gradientUnits="userSpaceOnUse">
<stop stop-color="#48A3DF"/>
<stop offset="0.322917" stop-color="#47A8F4"/>
<stop offset="0.604168" stop-color="#3E97F3"/>
<stop offset="1" stop-color="#5980F1"/>
</linearGradient>
<radialGradient id="paint9_radial_4791_556" cx="0" cy="0" r="1" gradientUnits="userSpaceOnUse" gradientTransform="translate(28.8727 28.0585) rotate(90) scale(0.970748 1.14063)">
<stop stop-color="#5EB5F9"/>
<stop offset="1" stop-color="#54B2F6" stop-opacity="0"/>
</radialGradient>
<radialGradient id="paint10_radial_4791_556" cx="0" cy="0" r="1" gradientUnits="userSpaceOnUse" gradientTransform="translate(23.7528 26.6807) rotate(90) scale(0.673261 0.830355)">
<stop offset="0.335675" stop-color="#4FB8F3"/>
<stop offset="1" stop-color="#56C3F7" stop-opacity="0"/>
</radialGradient>
<radialGradient id="paint11_radial_4791_556" cx="0" cy="0" r="1" gradientUnits="userSpaceOnUse" gradientTransform="translate(15.4075 26.8686) rotate(81.3136) scale(13.6848 12.688)">
<stop offset="0.596984" stop-color="#4EBAFF"/>
<stop offset="0.654411" stop-color="#60D7FF"/>
<stop offset="0.917866" stop-color="#66CBFF"/>
</radialGradient>
<radialGradient id="paint12_radial_4791_556" cx="0" cy="0" r="1" gradientUnits="userSpaceOnUse" gradientTransform="translate(22.6098 27.6827) rotate(-71.0296) scale(2.11923 3.08784)">
<stop offset="0.33432" stop-color="#41A3EC"/>
<stop offset="1" stop-color="#44A2EA" stop-opacity="0"/>
</radialGradient>
<linearGradient id="paint13_linear_4791_556" x1="14.2801" y1="15.9398" x2="13.5885" y2="17.5995" gradientUnits="userSpaceOnUse">
<stop stop-color="#93D6FF"/>
<stop offset="0.447424" stop-color="#9ADFFF"/>
<stop offset="1" stop-color="#99C9FF"/>
</linearGradient>
<radialGradient id="paint14_radial_4791_556" cx="0" cy="0" r="1" gradientUnits="userSpaceOnUse" gradientTransform="translate(19.7289 23.925) rotate(126.332) scale(2.43133)">
<stop stop-color="#76D5FF"/>
<stop offset="0.571923" stop-color="#5ABDFF"/>
<stop offset="1" stop-color="#83C4FF"/>
</radialGradient>
<radialGradient id="paint15_radial_4791_556" cx="0" cy="0" r="1" gradientUnits="userSpaceOnUse" gradientTransform="translate(19.541 24.0816) rotate(92.6026) scale(0.68963)">
<stop stop-color="#73D3FF"/>
<stop offset="1" stop-color="#73D4FF" stop-opacity="0"/>
</radialGradient>
<radialGradient id="paint16_radial_4791_556" cx="0" cy="0" r="1" gradientUnits="userSpaceOnUse" gradientTransform="translate(26.5435 24.1067) rotate(126.332) scale(1.8735)">
<stop stop-color="#76D5FF"/>
<stop offset="0.571923" stop-color="#5ABDFF"/>
<stop offset="1" stop-color="#83C4FF"/>
</radialGradient>
<radialGradient id="paint17_radial_4791_556" cx="0" cy="0" r="1" gradientUnits="userSpaceOnUse" gradientTransform="translate(26.3987 24.2273) rotate(92.6026) scale(0.531405)">
<stop stop-color="#73D3FF"/>
<stop offset="1" stop-color="#73D4FF" stop-opacity="0"/>
</radialGradient>
</defs>
</svg>

<svg width="100%" height="100%" viewBox="0 0 32 32" xmlns="http://www.w3.org/2000/svg"><path fill="url(#a)" d="M4.17 4.807c.141-.53.65-.873 1.194-.806L21.25 5.966a.783.783 0 0 1 .66.977L18.537 19.65a.94.94 0 0 1-1.278.622l-14.67-6.286a.97.97 0 0 1-.555-1.142z"/><path fill="url(#b)" d="M4.17 4.807c.141-.53.65-.873 1.194-.806L21.25 5.966a.783.783 0 0 1 .66.977L18.537 19.65a.94.94 0 0 1-1.278.622l-14.67-6.286a.97.97 0 0 1-.555-1.142z"/><path fill="url(#c)" d="M4.17 4.807c.141-.53.65-.873 1.194-.806L21.25 5.966a.783.783 0 0 1 .66.977L18.537 19.65a.94.94 0 0 1-1.278.622l-14.67-6.286a.97.97 0 0 1-.555-1.142z"/><path fill="url(#d)" d="M4.17 4.807c.141-.53.65-.873 1.194-.806L21.25 5.966a.783.783 0 0 1 .66.977L18.537 19.65a.94.94 0 0 1-1.278.622l-14.67-6.286a.97.97 0 0 1-.555-1.142z"/><path fill="url(#e)" d="M4.17 4.807c.141-.53.65-.873 1.194-.806L21.25 5.966a.783.783 0 0 1 .66.977L18.537 19.65a.94.94 0 0 1-1.278.622l-14.67-6.286a.97.97 0 0 1-.555-1.142z"/><path fill="url(#f)" d="M4.17 4.807c.141-.53.65-.873 1.194-.806L21.25 5.966a.783.783 0 0 1 .66.977L18.537 19.65a.94.94 0 0 1-1.278.622l-14.67-6.286a.97.97 0 0 1-.555-1.142z"/><path fill="url(#g)" d="M4.17 4.807c.141-.53.65-.873 1.194-.806L21.25 5.966a.783.783 0 0 1 .66.977L18.537 19.65a.94.94 0 0 1-1.278.622l-14.67-6.286a.97.97 0 0 1-.555-1.142z"/><path fill="url(#h)" d="M19.775 7.602c.344.043.59.366.549.721a.633.633 0 0 1-.7.566L5.712 7.168l.33-1.265z"/><path fill="url(#i)" d="M23.977 26.523a.67.67 0 0 0 .66.583H28.5c.829 0 1.5.676 1.5 1.51 0 .833-.671 1.384-1.5 1.384H15.483c-.828 0-1.5-.551-1.5-1.385 0-.833.672-1.51 1.5-1.51h6.479a.43.43 0 0 0 .429-.487c-.266-1.868 1.274-2.325 1.586-.095"/><path fill="url(#j)" d="M23.977 26.523a.67.67 0 0 0 .66.583H28.5c.829 0 1.5.676 1.5 1.51 0 .833-.671 1.384-1.5 1.384H15.483c-.828 0-1.5-.551-1.5-1.385 0-.833.672-1.51 1.5-1.51h6.479a.43.43 0 0 0 .429-.487c-.266-1.868 1.274-2.325 1.586-.095"/><path fill="url(#k)" d="M23.977 26.523a.67.67 0 0 0 .66.583H28.5c.829 0 1.5.676 1.5 1.51 0 .833-.671 1.384-1.5 1.384H15.483c-.828 0-1.5-.551-1.5-1.385 0-.833.672-1.51 1.5-1.51h6.479a.43.43 0 0 0 .429-.487c-.266-1.868 1.274-2.325 1.586-.095"/><path fill="#45BAFF" d="M8.326 14.579a.75.75 0 0 1 .978-.414l7.737 3.216c4.886 2.147 6.397 5.288 6.936 9.142.132.95-1.451 1.046-1.586.095-.472-3.312-1.84-5.948-5.825-7.719l-7.829-3.335a.757.757 0 0 1-.411-.985"/><path fill="url(#l)" d="M8.326 14.579a.75.75 0 0 1 .978-.414l7.737 3.216c4.886 2.147 6.397 5.288 6.936 9.142.132.95-1.451 1.046-1.586.095-.472-3.312-1.84-5.948-5.825-7.719l-7.829-3.335a.757.757 0 0 1-.411-.985"/><path fill="url(#m)" d="M8.326 14.579a.75.75 0 0 1 .978-.414l7.737 3.216c4.886 2.147 6.397 5.288 6.936 9.142.132.95-1.451 1.046-1.586.095-.472-3.312-1.84-5.948-5.825-7.719l-7.829-3.335a.757.757 0 0 1-.411-.985"/><path fill="url(#n)" d="M8.326 14.579a.75.75 0 0 1 .978-.414l7.737 3.216q1.027.452 1.866.962l-.478 1.566a12.7 12.7 0 0 0-1.863-1.01l-7.829-3.335a.757.757 0 0 1-.411-.985"/><circle cx="19.08" cy="24.529" r="1.355" fill="url(#o)"/><circle cx="19.08" cy="24.529" r="1.355" fill="url(#p)"/><circle cx="26.044" cy="24.572" r="1.044" fill="url(#q)"/><circle cx="26.044" cy="24.572" r="1.044" fill="url(#r)"/><defs><radialGradient id="f" cx="0" cy="0" r="1" gradientTransform="rotate(-163.302 11.039 3.722)scale(.65386 5.55786)" gradientUnits="userSpaceOnUse"><stop stop-color="#D5FFFF"/><stop offset="1" stop-color="#D5FFFF" stop-opacity="0"/></radialGradient><radialGradient id="g" cx="0" cy="0" r="1" gradientTransform="rotate(17.101 -33.97 16.29)scale(.42592 2.69195)" gradientUnits="userSpaceOnUse"><stop stop-color="#D5FFFF"/><stop offset="1" stop-color="#D5FFFF" stop-opacity="0"/></radialGradient><radialGradient id="j" cx="0" cy="0" r="1" gradientTransform="matrix(0 .97075 -1.14063 0 28.873 28.058)" gradientUnits="userSpaceOnUse"><stop stop-color="#5EB5F9"/><stop offset="1" stop-color="#54B2F6" stop-opacity="0"/></radialGradient><radialGradient id="k" cx="0" cy="0" r="1" gradientTransform="matrix(0 .67326 -.83035 0 23.753 26.68)" gradientUnits="userSpaceOnUse"><stop offset=".336" stop-color="#4FB8F3"/><stop offset="1" stop-color="#56C3F7" stop-opacity="0"/></radialGradient><radialGradient id="l" cx="0" cy="0" r="1" gradientTransform="matrix(2.06676 13.52783 -12.54247 1.91622 15.408 26.869)" gradientUnits="userSpaceOnUse"><stop offset=".597" stop-color="#4EBAFF"/><stop offset=".654" stop-color="#60D7FF"/><stop offset=".918" stop-color="#66CBFF"/></radialGradient><radialGradient id="m" cx="0" cy="0" r="1" gradientTransform="rotate(-71.03 30.7 -1.999)scale(2.11923 3.08784)" gradientUnits="userSpaceOnUse"><stop offset=".334" stop-color="#41A3EC"/><stop offset="1" stop-color="#44A2EA" stop-opacity="0"/></radialGradient><radialGradient id="o" cx="0" cy="0" r="1" gradientTransform="rotate(126.332 3.813 16.953)scale(2.43133)" gradientUnits="userSpaceOnUse"><stop stop-color="#76D5FF"/><stop offset=".572" stop-color="#5ABDFF"/><stop offset="1" stop-color="#83C4FF"/></radialGradient><radialGradient id="p" cx="0" cy="0" r="1" gradientTransform="rotate(92.603 -1.735 21.377)scale(.68963)" gradientUnits="userSpaceOnUse"><stop stop-color="#73D3FF"/><stop offset="1" stop-color="#73D4FF" stop-opacity="0"/></radialGradient><radialGradient id="q" cx="0" cy="0" r="1" gradientTransform="rotate(126.332 7.174 18.767)scale(1.8735)" gradientUnits="userSpaceOnUse"><stop stop-color="#76D5FF"/><stop offset=".572" stop-color="#5ABDFF"/><stop offset="1" stop-color="#83C4FF"/></radialGradient><radialGradient id="r" cx="0" cy="0" r="1" gradientTransform="scale(-.5314)rotate(-87.397 -48.694 3.198)" gradientUnits="userSpaceOnUse"><stop stop-color="#73D3FF"/><stop offset="1" stop-color="#73D4FF" stop-opacity="0"/></radialGradient><linearGradient id="a" x1="12.652" x2="10.46" y1="5.199" y2="15.721" gradientUnits="userSpaceOnUse"><stop stop-color="#BEE4FF"/><stop offset=".111" stop-color="#C0EBFF"/><stop offset="1" stop-color="#C8F2FF"/></linearGradient><linearGradient id="b" x1="12.652" x2="11.963" y1="4.51" y2="9.896" gradientUnits="userSpaceOnUse"><stop offset=".091" stop-color="#B9CEF1"/><stop offset=".218" stop-color="#B9D2FB" stop-opacity="0"/></linearGradient><linearGradient id="c" x1="9.332" x2="11.62" y1="16.973" y2="11.458" gradientUnits="userSpaceOnUse"><stop offset=".052" stop-color="#C3D5FA"/><stop offset=".351" stop-color="#C1E9FF" stop-opacity="0"/></linearGradient><linearGradient id="d" x1="2.569" x2="11.62" y1="8.706" y2="11.458" gradientUnits="userSpaceOnUse"><stop offset=".052" stop-color="#C3D5FA"/><stop offset=".145" stop-color="#C1E9FF" stop-opacity="0"/></linearGradient><linearGradient id="e" x1="20.731" x2="11.62" y1="13.529" y2="11.458" gradientUnits="userSpaceOnUse"><stop offset=".052" stop-color="#C3D5FA"/><stop offset=".145" stop-color="#C1E9FF" stop-opacity="0"/></linearGradient><linearGradient id="h" x1="20.328" x2="3.445" y1="8.393" y2="5.903" gradientUnits="userSpaceOnUse"><stop offset=".41" stop-color="#fff"/><stop offset=".852" stop-color="#fff" stop-opacity="0"/></linearGradient><linearGradient id="i" x1="21.992" x2="21.992" y1="26.994" y2="30" gradientUnits="userSpaceOnUse"><stop stop-color="#48A3DF"/><stop offset=".323" stop-color="#47A8F4"/><stop offset=".604" stop-color="#3E97F3"/><stop offset="1" stop-color="#5980F1"/></linearGradient><linearGradient id="n" x1="14.28" x2="13.588" y1="15.94" y2="17.599" gradientUnits="userSpaceOnUse"><stop stop-color="#93D6FF"/><stop offset=".447" stop-color="#9ADFFF"/><stop offset="1" stop-color="#99C9FF"/></linearGradient></defs></svg>
